X: 30342
T: Old Oak, The
R: waltz
M: 3/4
K: Dmajor
d4BA|d4BA|d2e2(f2|f4) fd|
B3dcA|F4 (3DEF|G3 FEA|D6|

